src/images/svg/logo.svg

<svg width="20" height="20" viewBox="0 0 20 20" fill="none" xmlns="http://www.w3.org/2000/svg">
<g id="Icon/Fill/trending-up">
<path id="Mask" fill-rule="evenodd" clip-rule="evenodd" d="M17.4935 5.80238C17.4918 5.74238 17.4743 5.68571 17.4585 5.62821C17.446 5.57988 17.4402 5.53071 17.4193 5.48654C17.4002 5.44321 17.3677 5.40821 17.3393 5.36821C17.3043 5.31738 17.2727 5.26654 17.2277 5.22488C17.2202 5.21738 17.2168 5.20738 17.2085 5.20071C17.1785 5.17488 17.1418 5.16571 17.1093 5.14488C17.0593 5.11238 17.0102 5.07904 16.9535 5.05738C16.8977 5.03738 16.8427 5.03238 16.7852 5.02404C16.7452 5.01821 16.7093 4.99988 16.6668 4.99988H12.5002C12.0393 4.99988 11.6668 5.37321 11.6668 5.83321C11.6668 6.29321 12.0393 6.66654 12.5002 6.66654H14.8552L11.4918 10.5899L7.9285 8.45238C7.576 8.23904 7.12267 8.31738 6.85934 8.63321L2.69267 13.6332C2.3985 13.9865 2.446 14.5124 2.79934 14.8065C2.956 14.9365 3.14434 14.9999 3.33267 14.9999C3.57184 14.9999 3.8085 14.8982 3.9735 14.6999L7.6835 10.2482L11.2377 12.3815C11.5868 12.5907 12.0352 12.5174 12.2993 12.209L15.8335 8.08571V9.99988C15.8335 10.4599 16.206 10.8332 16.6668 10.8332C17.1277 10.8332 17.5002 10.4599 17.5002 9.99988V5.83321C17.5002 5.82238 17.4943 5.81321 17.4935 5.80238Z" fill="#231F20"/>
<mask id="mask0" mask-type="alpha" maskUnits="userSpaceOnUse" x="2" y="4" width="16" height="11">
<path id="Mask_2" fill-rule="evenodd" clip-rule="evenodd" d="M17.4935 5.80238C17.4918 5.74238 17.4743 5.68571 17.4585 5.62821C17.446 5.57988 17.4402 5.53071 17.4193 5.48654C17.4002 5.44321 17.3677 5.40821 17.3393 5.36821C17.3043 5.31738 17.2727 5.26654 17.2277 5.22488C17.2202 5.21738 17.2168 5.20738 17.2085 5.20071C17.1785 5.17488 17.1418 5.16571 17.1093 5.14488C17.0593 5.11238 17.0102 5.07904 16.9535 5.05738C16.8977 5.03738 16.8427 5.03238 16.7852 5.02404C16.7452 5.01821 16.7093 4.99988 16.6668 4.99988H12.5002C12.0393 4.99988 11.6668 5.37321 11.6668 5.83321C11.6668 6.29321 12.0393 6.66654 12.5002 6.66654H14.8552L11.4918 10.5899L7.9285 8.45238C7.576 8.23904 7.12267 8.31738 6.85934 8.63321L2.69267 13.6332C2.3985 13.9865 2.446 14.5124 2.79934 14.8065C2.956 14.9365 3.14434 14.9999 3.33267 14.9999C3.57184 14.9999 3.8085 14.8982 3.9735 14.6999L7.6835 10.2482L11.2377 12.3815C11.5868 12.5907 12.0352 12.5174 12.2993 12.209L15.8335 8.08571V9.99988C15.8335 10.4599 16.206 10.8332 16.6668 10.8332C17.1277 10.8332 17.5002 10.4599 17.5002 9.99988V5.83321C17.5002 5.82238 17.4943 5.81321 17.4935 5.80238Z" fill="white"/>
</mask>
<g mask="url(#mask0)">
<g id="&#240;&#159;&#142;&#168; Color">
<rect id="Base" width="20" height="20" fill="white"/>
</g>
</g>
</g>
</svg>

<svg width="20" height="20" fill="none" xmlns="http://www.w3.org/2000/svg"><path fill-rule="evenodd" clip-rule="evenodd" d="M17.494 5.802c-.002-.06-.02-.116-.035-.174-.013-.048-.019-.097-.04-.141-.019-.044-.051-.079-.08-.119-.035-.05-.066-.101-.111-.143-.008-.008-.011-.018-.02-.024-.03-.026-.066-.035-.099-.056-.05-.033-.099-.066-.156-.088-.055-.02-.11-.025-.168-.033-.04-.006-.076-.024-.118-.024H12.5a.833.833 0 100 1.667h2.355l-3.363 3.923-3.564-2.138a.831.831 0 00-1.069.181l-4.166 5a.833.833 0 001.28 1.067l3.71-4.452 3.555 2.134c.349.209.797.135 1.061-.173l3.535-4.123V10a.833.833 0 101.666 0V5.833c0-.01-.006-.02-.006-.03z" fill="#231F20"/><mask id="a" maskUnits="userSpaceOnUse" x="2" y="4" width="16" height="11"><path fill-rule="evenodd" clip-rule="evenodd" d="M17.494 5.802c-.002-.06-.02-.116-.035-.174-.013-.048-.019-.097-.04-.141-.019-.044-.051-.079-.08-.119-.035-.05-.066-.101-.111-.143-.008-.008-.011-.018-.02-.024-.03-.026-.066-.035-.099-.056-.05-.033-.099-.066-.156-.088-.055-.02-.11-.025-.168-.033-.04-.006-.076-.024-.118-.024H12.5a.833.833 0 100 1.667h2.355l-3.363 3.923-3.564-2.138a.831.831 0 00-1.069.181l-4.166 5a.833.833 0 001.28 1.067l3.71-4.452 3.555 2.134c.349.209.797.135 1.061-.173l3.535-4.123V10a.833.833 0 101.666 0V5.833c0-.01-.006-.02-.006-.03z" fill="#fff"/></mask><g mask="url(#a)"><path fill="#fff" d="M0 0h20v20H0z"/></g></svg>
